fs/animal_cat_20_filled.svg

<svg viewBox="0 0 20 20" fill="none" xmlns="http://www.w3.org/2000/svg" height="1em" width="1em">
  <path d="M4.97 17.9999H6.13535L6.14635 18H13V16.5C13 15.1193 11.8807 14 10.5 14H9.5C9.22386 14 9 13.7761 9 13.5C9 13.2239 9.22386 13 9.5 13H10.5C12.433 13 14 14.567 14 16.5V18H14.25C14.7223 18 15.15 17.809 15.4602 17.5H15.5V17.459C15.7885 17.1519 15.9652 16.7385 15.9652 16.2838V8.67392C17.5742 8.61011 18.5384 6.82402 17.6784 5.43609L17.1759 4.62528C16.7893 4.00125 16.1076 3.62162 15.3738 3.62162H13.9393V2.98649C13.9393 2.44167 13.4979 2 12.9534 2C11.6033 2 10.5088 3.09509 10.5088 4.44594V7.90235C9.23089 8.02751 8.26574 8.63291 7.55727 9.48354C7.11681 10.0124 6.77838 10.6317 6.51771 11.2818C6.28987 11.7414 6.13062 12.2409 6.05333 12.7671L6.03955 12.8256C5.76369 14.0085 5.66653 15.1838 5.6374 16.0581C5.62494 16.4323 5.62487 16.7537 5.62892 16.9999H4.97C3.88169 16.9999 2.99945 16.1171 2.99945 15.0282C2.99945 14.5288 3.18885 14.048 3.52942 13.6829L4.4498 12.6963C5.34607 11.7355 5.64543 10.3611 5.23006 9.1143C5.05404 8.58594 4.75748 8.10585 4.36388 7.71204L3.46084 6.80855C3.26569 6.61329 2.94928 6.6133 2.75413 6.80856C2.55898 7.00383 2.55899 7.32041 2.75415 7.51567L3.65718 8.41917C3.94106 8.70319 4.15495 9.04945 4.2819 9.43052C4.58148 10.3298 4.36557 11.321 3.71915 12.014L2.79877 13.0006C2.28547 13.5509 2 14.2755 2 15.0282C2 16.6694 3.32972 17.9999 4.97 17.9999Z" fill="#212121"/>
</svg>

<svg viewBox="0 0 20 20" fill="none" xmlns="http://www.w3.org/2000/svg" height="1em" width="1em">
  <path d="M4.97 18H13v-1.5a2.5 2.5 0 0 0-2.5-2.5h-1a.5.5 0 0 1 0-1h1a3.5 3.5 0 0 1 3.5 3.5V18h.25c.472 0 .9-.191 1.21-.5h.04v-.041a1.71 1.71 0 0 0 .465-1.175v-7.61c1.61-.064 2.573-1.85 1.713-3.238l-.502-.81a2.12 2.12 0 0 0-1.802-1.004h-1.435v-.636A.986.986 0 0 0 12.953 2a2.445 2.445 0 0 0-2.444 2.446v3.456c-1.278.126-2.243.73-2.952 1.582-.44.528-.779 1.148-1.04 1.798-.227.46-.386.959-.464 1.485l-.013.059c-.276 1.182-.373 2.358-.403 3.232-.012.374-.012.696-.008.942H4.97a1.971 1.971 0 0 1-1.44-3.317l.92-.987a3.589 3.589 0 0 0-.086-4.984l-.903-.903a.5.5 0 1 0-.707.707l.903.903a2.587 2.587 0 0 1 .062 3.595l-.92.987A2.973 2.973 0 0 0 4.97 18Z" fill="#212121"/>
</svg>
